X:0429
T:Birks of Abergeldie.
M:C|
L:1/8
Q:1/4=120
I: :| ||
Z:Jack Campin * www.campin.me.uk * 2009
K:G
GA`Bd  g2 ge|g2 ge  g>a       g/a/b|GA`Bd g>aba|ge`dB A2d2::
G>ABg dG`BG |dG`Bd (e/d/c/B/) AB   |G>ABd g>aba|geTdB A2e2 |
G>ABg d>gB>g|d>gB>g e/d/c/B/  AB   |G>ABd g>aba|ge`dB A2e2|]

